src/dsmComponents/Icons/location-pin-lost-12px.svg

<?xml version="1.0" encoding="UTF-8"?>
<svg width="12px" height="12px" viewBox="0 0 12 12" version="1.1" xmlns="http://www.w3.org/2000/svg" xmlns:xlink="http://www.w3.org/1999/xlink">
    <!-- Generator: Sketch 59.1 (86144) - https://sketch.com -->
    <title>location-pin-lost-12px</title>
    <desc>Created with Sketch.</desc>
    <defs>
        <path d="M0.349333333,1.28227826 C0.462933333,1.15027826 0.664533333,1.13306087 0.8,1.2441913 L0.8,1.2441913 L10.5477333,9.24558261 C10.6826667,9.3561913 10.7008,9.5534087 10.5872,9.68593043 L10.5872,9.68593043 L10.312,10.0062783 C10.1989333,10.1382783 9.99733333,10.1560174 9.86186667,10.044887 L9.86186667,10.044887 L8.64693333,9.04732174 C7.60902222,10.4376261 6.50926667,11.5596261 6.2686858,11.8000651 L6.22506667,11.8433217 C6.1184,11.9476696 6.01173333,11.9998435 5.85173333,11.9998435 C5.69173333,11.9998435 5.58506667,11.9476696 5.4784,11.8433217 C5.3184,11.6868 1.05173333,7.46071304 1.05173333,4.69549565 C1.05173333,4.09653913 1.15946667,3.54923478 1.34346667,3.05201739 L1.34346667,3.05201739 L0.114133333,2.04349565 C-0.0208,1.93236522 -0.0389333333,1.73514783 0.0746666667,1.60314783 L0.0746666667,1.60314783 Z M5.85168,-5.21739132e-05 C8.19834667,-5.21739132e-05 10.65168,1.77386087 10.65168,4.6956 C10.65168,5.48081739 10.3066133,6.38342609 9.81008,7.27768696 L9.81008,7.27768696 L7.33968,5.2502087 C7.40528,5.07751304 7.45168,4.89542609 7.45168,4.6956 C7.45168,3.80864348 6.75834667,3.13038261 5.85168,3.13038261 C5.54448,3.13038261 5.26501333,3.21281739 5.02661333,3.35107826 L5.02661333,3.35107826 L2.53274667,1.30377391 C3.44368,0.466904348 4.65808,-5.21739132e-05 5.85168,-5.21739132e-05 Z" id="path-1"></path>
    </defs>
    <g id="Final" stroke="none" stroke-width="1" fill="none" fill-rule="evenodd">
        <g id="All-Nucleo-Icons" transform="translate(-174.000000, -4378.000000)">
            <g id="Solo/Nucleo/12px/location-pin-lost" transform="translate(168.000000, 4372.000000)">
                <g id="location-lost" transform="translate(6.000000, 6.000000)">
                    <g id="Group-6" transform="translate(0.133333, 0.000000)">
                        <g id="Colour/Default-Colour" transform="translate(0.533333, 0.000000)">
                            <mask id="mask-2" fill="white">
                                <use xlink:href="#path-1"></use>
                            </mask>
                            <g id="Mask"></g>
                            <g id="colour/neutral/chia" mask="url(#mask-2)" fill="#737373">
                                <g transform="translate(-16.000000, -16.000000)" id="Colour">
                                    <rect x="0" y="0" width="43" height="43"></rect>
                                </g>
                            </g>
                        </g>
                    </g>
                </g>
            </g>
        </g>
    </g>
</svg>

<svg width="12" height="12" xmlns="http://www.w3.org/2000/svg" xmlns:xlink="http://www.w3.org/1999/xlink"><defs><path d="M.35 1.282a.325.325 0 01.45-.038l9.748 8.002c.135.11.153.307.04.44l-.276.32a.324.324 0 01-.45.039l-1.215-.998A27.314 27.314 0 016.269 11.8l-.044.043a.49.49 0 01-.373.157.49.49 0 01-.374-.157c-.16-.156-4.426-4.382-4.426-7.148 0-.598.107-1.146.291-1.643L.114 2.043a.308.308 0 01-.04-.44zM5.851 0c2.346 0 4.8 1.774 4.8 4.696 0 .785-.345 1.687-.842 2.582L7.34 5.25c.065-.172.112-.355.112-.554 0-.887-.694-1.566-1.6-1.566-.308 0-.587.083-.825.221L2.533 1.304A4.969 4.969 0 015.852 0z" id="location-pin-lost-12px_svg__a"/></defs><use fill="#737373" xlink:href="#location-pin-lost-12px_svg__a" transform="translate(.667)" fill-rule="evenodd"/></svg>
